; generated by PrusaSlicer 2.6.1+win64 on 2023-12-17 at 10:47:45 UTC

; 

; external perimeters extrusion width = 0.45mm
; perimeters extrusion width = 0.45mm
; infill extrusion width = 0.45mm
; solid infill extrusion width = 0.45mm
; top infill extrusion width = 0.40mm
; first layer extrusion width = 0.70mm

M104 S200 ; set temperature
;TYPE:Custom
G28 ; home all axes
G1 Z5 F5000 ; lift nozzle
M109 S200 ; set temperature and wait for it to be reached
G21 ; set units to millimeters
G90 ; use absolute coordinates
M82 ; use absolute distances for extrusion
G92 E0
; Filament gcode
M107
;LAYER_CHANGE
;Z:0.35
;HEIGHT:0.35
G1 Z.35 F7800
G1 E-2 F2400
G92 E0
G1 X36.298 Y85.846 F7800
G1 E2 F2400
;TYPE:Skirt/Brim
;WIDTH:0.7
G1 F1800
G1 X38.38 Y85.345 E2.19472
G1 X153.042 Y85.314 E12.62089
G1 X154.516 Y85.48 E12.75577
G1 X156.664 Y86.323 E12.96559
G1 X158.035 Y87.375 E13.12273
G1 X160.821 Y90.177 E13.48202
G1 X161.934 Y91.808 E13.66157
G1 X162.589 Y93.847 E13.85631
G1 X162.614 Y95.987 E14.05091
G1 X162.01 Y98.033 E14.24489
G1 X155.934 Y110.692 E15.52169
G1 X154.822 Y112.323 E15.70119
G1 X153.164 Y113.677 E15.89584
G1 X151.016 Y114.52 E16.10566
G1 X149.542 Y114.686 E16.24054
G1 X41.047 Y114.668 E26.10594
G1 X38.798 Y114.154 E26.31571
G1 X36.957 Y113.062 E26.51034
G1 X33.903 Y110.067 E26.89929
G1 X33.114 Y109.115 E27.01172
G1 X32.113 Y107.037 E27.22145
G1 X31.818 Y105.084 E27.40105
G1 X31.818 Y92.416 E28.55295
G1 X32.113 Y90.463 E28.73255
G1 X33.019 Y88.524 E28.92716
G1 X34.457 Y86.938 E29.12183
G1 X36.247 Y85.876 E29.31108
G1 E27.31108 F2400
G92 E0
G1 X155.751 Y95 F7800
G1 E2 F2400
;TYPE:External perimeter
;WIDTH:0.576745
G1 F1800
G1 X155.701 Y94.85 E2.01154
G1 X155.569 Y94.753 E2.0235
G1 X155.45 Y94.739 E2.03225
G1 X155.308 Y94.821 E2.04422
G1 X155.24 Y94.961 E2.05558
G1 X155.264 Y95.114 E2.06688
G1 X155.369 Y95.227 E2.07814
G1 X155.52 Y95.262 E2.08945
G1 X155.664 Y95.205 E2.10075
G1 X155.751 Y95.077 E2.11205
G1 X155.751 Y95 E2.11767
G1 E.11767 F2400
G92 E0
G1 X153.251 Y92.5 F7800
G1 E2 F2400
;WIDTH:0.576749
G1 F1800
G1 X153.202 Y92.351 E2.01145
G1 X153.075 Y92.255 E2.02307
G1 X152.909 Y92.247 E2.0352
G1 X152.763 Y92.386 E2.04991
G1 X152.756 Y92.593 E2.06503
G1 X152.865 Y92.727 E2.07764
G1 X153.02 Y92.762 E2.08924
G1 X153.164 Y92.705 E2.10054
G1 X153.251 Y92.577 E2.11184
G1 X153.251 Y92.5 E2.11746
G1 E.11746 F2400
G92 E0
G1 X153.251 Y95 F7800
G1 E2 F2400
;WIDTH:0.576745
G1 F1800
G1 X153.201 Y94.85 E2.01154
G1 X153.069 Y94.753 E2.0235
G1 X152.95 Y94.739 E2.03225
G1 X152.808 Y94.821 E2.04422
G1 X152.74 Y94.961 E2.05558
G1 X152.764 Y95.114 E2.06688
G1 X152.869 Y95.227 E2.07814
G1 X153.02 Y95.262 E2.08945
G1 X153.164 Y95.205 E2.10075
G1 X153.251 Y95.077 E2.11205
G1 X153.251 Y95 E2.11767
G1 E.11767 F2400
G92 E0
G1 X153.251 Y97.5 F7800
G1 E2 F2400
G1 F1800
G1 X153.201 Y97.35 E2.01154
G1 X153.069 Y97.253 E2.0235
G1 X152.95 Y97.239 E2.03225
G1 X152.808 Y97.321 E2.04422
G1 X152.74 Y97.461 E2.05558
G1 X152.764 Y97.614 E2.06688
G1 X152.869 Y97.727 E2.07814
G1 X153.02 Y97.762 E2.08945
G1 X153.164 Y97.705 E2.10075
G1 X153.251 Y97.577 E2.11205
G1 X153.251 Y97.5 E2.11767
G1 E.11767 F2400
G92 E0
G1 X149.751 Y95 F7800
G1 E2 F2400
G1 F1800
G1 X149.701 Y94.85 E2.01154
G1 X149.569 Y94.753 E2.0235
G1 X149.45 Y94.739 E2.03225
G1 X149.308 Y94.821 E2.04422
G1 X149.24 Y94.961 E2.05558
G1 X149.264 Y95.114 E2.06688
G1 X149.369 Y95.227 E2.07814
G1 X149.52 Y95.262 E2.08945
G1 X149.664 Y95.205 E2.10075
G1 X149.751 Y95.077 E2.11205
G1 X149.751 Y95 E2.11767
G1 E.11767 F2400
G92 E0
G1 X147.251 Y97.5 F7800
G1 E2 F2400
G1 F1800
G1 X147.201 Y97.35 E2.01154
G1 X147.069 Y97.253 E2.0235
G1 X146.95 Y97.239 E2.03225
G1 X146.808 Y97.321 E2.04422
G1 X146.74 Y97.461 E2.05558
G1 X146.764 Y97.614 E2.06688
G1 X146.869 Y97.727 E2.07814
G1 X147.02 Y97.762 E2.08945
G1 X147.164 Y97.705 E2.10075
G1 X147.251 Y97.577 E2.11205
G1 X147.251 Y97.5 E2.11767
G1 E.11767 F2400
G92 E0
G1 X143.751 Y97.5 F7800
G1 E2 F2400
G1 F1800
G1 X143.701 Y97.35 E2.01154
G1 X143.569 Y97.253 E2.0235
G1 X143.45 Y97.239 E2.03225
G1 X143.308 Y97.321 E2.04422
G1 X143.24 Y97.461 E2.05558
G1 X143.264 Y97.614 E2.06688
G1 X143.369 Y97.727 E2.07814
G1 X143.52 Y97.762 E2.08945
G1 X143.664 Y97.705 E2.10075
G1 X143.751 Y97.577 E2.11205
G1 X143.751 Y97.5 E2.11767
G1 E.11767 F2400
G92 E0
G1 X143.751 Y95 F7800
G1 E2 F2400
G1 F1800
G1 X143.701 Y94.85 E2.01154
G1 X143.569 Y94.753 E2.0235
G1 X143.45 Y94.739 E2.03225
G1 X143.308 Y94.821 E2.04422
G1 X143.24 Y94.961 E2.05558
G1 X143.264 Y95.114 E2.06688
G1 X143.369 Y95.227 E2.07814
G1 X143.52 Y95.262 E2.08945
G1 X143.664 Y95.205 E2.10075
G1 X143.751 Y95.077 E2.11205
G1 X143.751 Y95 E2.11767
G1 E.11767 F2400
G92 E0
G1 X141.251 Y95 F7800
G1 E2 F2400
G1 F1800
G1 X141.201 Y94.85 E2.01154
G1 X141.069 Y94.753 E2.0235
G1 X140.95 Y94.739 E2.03225
G1 X140.808 Y94.821 E2.04422
G1 X140.74 Y94.961 E2.05558
G1 X140.764 Y95.114 E2.06688
G1 X140.869 Y95.227 E2.07814
G1 X141.02 Y95.262 E2.08945
G1 X141.164 Y95.205 E2.10075
G1 X141.251 Y95.077 E2.11205
G1 X141.251 Y95 E2.11767
G1 E.11767 F2400
G92 E0
G1 X141.251 Y92.5 F7800
G1 E2 F2400
;WIDTH:0.576749
G1 F1800
G1 X141.202 Y92.351 E2.01145
G1 X141.075 Y92.255 E2.02307
G1 X140.909 Y92.247 E2.0352
G1 X140.763 Y92.386 E2.04991
G1 X140.756 Y92.593 E2.06503
G1 X140.865 Y92.727 E2.07764
G1 X141.02 Y92.762 E2.08924
G1 X141.164 Y92.705 E2.10054
G1 X141.251 Y92.577 E2.11184
G1 X141.251 Y92.5 E2.11746
G1 E.11746 F2400
G92 E0
G1 X135.251 Y97.5 F7800
G1 E2 F2400
;WIDTH:0.576745
G1 F1800
G1 X135.201 Y97.35 E2.01154
G1 X135.069 Y97.253 E2.0235
G1 X134.95 Y97.239 E2.03225
G1 X134.808 Y97.321 E2.04422
G1 X134.74 Y97.461 E2.05558
G1 X134.764 Y97.614 E2.06688
G1 X134.869 Y97.727 E2.07814
G1 X135.02 Y97.762 E2.08945
G1 X135.164 Y97.705 E2.10075
G1 X135.251 Y97.577 E2.11205
G1 X135.251 Y97.5 E2.11767
G1 E.11767 F2400
G92 E0
G1 X131.751 Y97.5 F7800
G1 E2 F2400
;WIDTH:0.576625
G1 F1800
G1 X131.702 Y97.351 E2.01145
G1 X131.575 Y97.255 E2.02307
G1 X131.409 Y97.247 E2.0352
G1 X131.263 Y97.386 E2.04991
G1 X131.24 Y97.539 E2.0612
G1 X131.308 Y97.679 E2.07256
G1 X131.442 Y97.756 E2.08384
G1 X131.596 Y97.744 E2.09511
G1 X131.751 Y97.598 E2.11065
G1 X131.751 Y97.5 E2.1178
G1 E.1178 F2400
G92 E0
G1 X131.751 Y95 F7800
G1 E2 F2400
G1 F1800
G1 X131.702 Y94.851 E2.01145
G1 X131.575 Y94.755 E2.02307
G1 X131.409 Y94.747 E2.0352
G1 X131.263 Y94.886 E2.04991
G1 X131.24 Y95.039 E2.0612
G1 X131.308 Y95.179 E2.07256
G1 X131.442 Y95.256 E2.08384
G1 X131.596 Y95.244 E2.09511
G1 X131.751 Y95.098 E2.11065
G1 X131.751 Y95 E2.1178
G1 E.1178 F2400
G92 E0
G1 X131.751 Y92.5 F7800
G1 E2 F2400
;WIDTH:0.576624
G1 F1800
G1 X131.702 Y92.351 E2.01145
G1 X131.575 Y92.255 E2.02307
G1 X131.409 Y92.247 E2.0352
G1 X131.263 Y92.386 E2.04991
G1 X131.24 Y92.539 E2.0612
G1 X131.308 Y92.679 E2.07256
G1 X131.442 Y92.756 E2.08384
G1 X131.596 Y92.744 E2.09511
G1 X131.751 Y92.598 E2.11065
G1 X131.751 Y92.5 E2.1178
G1 E.1178 F2400
G92 E0
G1 X129.251 Y95 F7800
G1 E2 F2400
;WIDTH:0.576625
G1 F1800
G1 X129.202 Y94.851 E2.01145
G1 X129.075 Y94.755 E2.02307
G1 X128.909 Y94.747 E2.0352
G1 X128.763 Y94.886 E2.04991
G1 X128.74 Y95.039 E2.0612
G1 X128.808 Y95.179 E2.07256
G1 X128.942 Y95.256 E2.08384
G1 X129.096 Y95.244 E2.09511
G1 X129.251 Y95.098 E2.11065
G1 X129.251 Y95 E2.1178
G1 E.1178 F2400
G92 E0
G1 X119.751 Y95 F7800
G1 E2 F2400
G1 F1800
G1 X119.702 Y94.851 E2.01145
G1 X119.575 Y94.755 E2.02307
G1 X119.409 Y94.747 E2.0352
G1 X119.263 Y94.886 E2.04991
G1 X119.24 Y95.039 E2.0612
G1 X119.308 Y95.179 E2.07256
G1 X119.442 Y95.256 E2.08384
G1 X119.596 Y95.244 E2.09511
G1 X119.751 Y95.098 E2.11065
G1 X119.751 Y95 E2.1178
G1 E.1178 F2400
G92 E0
G1 X117.251 Y97.5 F7800
G1 E2 F2400
;WIDTH:0.576526
G1 F1800
G1 X117.201 Y97.35 E2.01154
G1 X117.069 Y97.252 E2.02354
G1 X116.95 Y97.239 E2.03227
G1 X116.808 Y97.321 E2.04423
G1 X116.732 Y97.52 E2.05977
G1 X116.808 Y97.679 E2.07263
G1 X116.942 Y97.756 E2.08391
G1 X117.096 Y97.744 E2.09518
G1 X117.251 Y97.598 E2.11072
G1 X117.251 Y97.5 E2.11787
G1 E.11787 F2400
G92 E0
G1 X113.751 Y95 F7800
G1 E2 F2400
;WIDTH:0.576598
G1 F1800
G1 X113.702 Y94.851 E2.01145
G1 X113.575 Y94.755 E2.02307
G1 X113.409 Y94.747 E2.0352
G1 X113.263 Y94.886 E2.04991
G1 X113.256 Y95.093 E2.06502
G1 X113.365 Y95.227 E2.07762
G1 X113.52 Y95.262 E2.08922
G1 X113.663 Y95.205 E2.10045
G1 X113.751 Y95.076 E2.11185
G1 X113.751 Y95 E2.1174
G1 E.1174 F2400
G92 E0
G1 X111.251 Y95 F7800
G1 E2 F2400
G1 F1800
G1 X111.202 Y94.851 E2.01145
G1 X111.075 Y94.755 E2.02307
G1 X110.909 Y94.747 E2.0352
G1 X110.763 Y94.886 E2.04991
G1 X110.756 Y95.093 E2.06502
G1 X110.865 Y95.227 E2.07762
G1 X111.02 Y95.262 E2.08922
G1 X111.163 Y95.205 E2.10045
G1 X111.251 Y95.076 E2.11185
G1 X111.251 Y95 E2.1174
G1 E.1174 F2400
G92 E0
G1 X111.251 Y97.5 F7800
G1 E2 F2400
;WIDTH:0.576496
G1 F1800
G1 X111.201 Y97.35 E2.01154
G1 X111.069 Y97.252 E2.02353
G1 X110.95 Y97.239 E2.03226
G1 X110.808 Y97.321 E2.04422
G1 X110.732 Y97.531 E2.06051
G1 X110.865 Y97.727 E2.07779
G1 X111.02 Y97.762 E2.08938
G1 X111.164 Y97.705 E2.10068
G1 X111.251 Y97.576 E2.11203
G1 X111.251 Y97.5 E2.11757
G1 E.11757 F2400
G92 E0
G1 X107.751 Y97.5 F7800
G1 E2 F2400
;WIDTH:0.576598
G1 F1800
G1 X107.702 Y97.351 E2.01145
G1 X107.575 Y97.255 E2.02307
G1 X107.409 Y97.247 E2.0352
G1 X107.263 Y97.386 E2.04991
G1 X107.256 Y97.593 E2.06502
G1 X107.365 Y97.727 E2.07762
G1 X107.52 Y97.762 E2.08922
G1 X107.663 Y97.705 E2.10045
G1 X107.751 Y97.576 E2.11185
G1 X107.751 Y97.5 E2.1174
G1 E.1174 F2400
G92 E0
G1 X107.751 Y95 F7800
G1 E2 F2400
G1 F1800
G1 X107.702 Y94.851 E2.01145
G1 X107.575 Y94.755 E2.02307
G1 X107.409 Y94.747 E2.0352
G1 X107.263 Y94.886 E2.04991
G1 X107.256 Y95.093 E2.06502
G1 X107.365 Y95.227 E2.07762
G1 X107.52 Y95.262 E2.08922
G1 X107.663 Y95.205 E2.10045
G1 X107.751 Y95.076 E2.11185
G1 X107.751 Y95 E2.1174
G1 E.1174 F2400
G92 E0
G1 X105.251 Y95 F7800
G1 E2 F2400
G1 F1800
G1 X105.202 Y94.851 E2.01145
G1 X105.075 Y94.755 E2.02307
G1 X104.909 Y94.747 E2.0352
G1 X104.763 Y94.886 E2.04991
G1 X104.756 Y95.093 E2.06502
G1 X104.865 Y95.227 E2.07762
G1 X105.02 Y95.262 E2.08922
G1 X105.163 Y95.205 E2.10045
G1 X105.251 Y95.076 E2.11185
G1 X105.251 Y95 E2.1174
G1 E.1174 F2400
G92 E0
G1 X105.251 Y92.5 F7800
G1 E2 F2400
;WIDTH:0.576626
G1 F1800
G1 X105.201 Y92.35 E2.01154
G1 X105.069 Y92.252 E2.02354
G1 X104.95 Y92.239 E2.03228
G1 X104.808 Y92.321 E2.04425
G1 X104.74 Y92.461 E2.05561
G1 X104.763 Y92.614 E2.0669
G1 X104.869 Y92.727 E2.07821
G1 X105.02 Y92.762 E2.08952
G1 X105.163 Y92.705 E2.10075
G1 X105.251 Y92.576 E2.11215
G1 X105.251 Y92.5 E2.1177
G1 E.1177 F2400
G92 E0
G1 X105.251 Y102.5 F7800
G1 E2 F2400
G1 F1800
G1 X105.201 Y102.35 E2.01154
G1 X105.069 Y102.252 E2.02354
G1 X104.95 Y102.239 E2.03228
G1 X104.808 Y102.321 E2.04425
G1 X104.74 Y102.461 E2.05561
G1 X104.763 Y102.614 E2.0669
G1 X104.869 Y102.727 E2.07821
G1 X105.02 Y102.762 E2.08952
G1 X105.163 Y102.705 E2.10075
G1 X105.251 Y102.576 E2.11215
G1 X105.251 Y102.5 E2.1177
G1 E.1177 F2400
G92 E0
G1 X105.251 Y105 F7800
G1 E2 F2400
;WIDTH:0.576598
G1 F1800
G1 X105.202 Y104.851 E2.01145
G1 X105.075 Y104.755 E2.02307
G1 X104.909 Y104.747 E2.0352
G1 X104.763 Y104.886 E2.04991
G1 X104.756 Y105.093 E2.06502
G1 X104.865 Y105.227 E2.07762
G1 X105.02 Y105.262 E2.08922
G1 X105.163 Y105.205 E2.10045
G1 X105.251 Y105.076 E2.11185
G1 X105.251 Y105 E2.1174
G1 E.1174 F2400
G92 E0
G1 X107.751 Y107.5 F7800
G1 E2 F2400
G1 F1800
G1 X107.702 Y107.351 E2.01145
G1 X107.575 Y107.255 E2.02307
G1 X107.409 Y107.247 E2.0352
G1 X107.263 Y107.386 E2.04991
G1 X107.256 Y107.593 E2.06502
G1 X107.365 Y107.727 E2.07762
G1 X107.52 Y107.762 E2.08922
G1 X107.663 Y107.705 E2.10045
G1 X107.751 Y107.576 E2.11185
G1 X107.751 Y107.5 E2.1174
G1 E.1174 F2400
G92 E0
G1 X111.251 Y107.5 F7800
G1 E2 F2400
;WIDTH:0.576597
G1 F1800
G1 X111.202 Y107.351 E2.01145
G1 X111.075 Y107.255 E2.02307
G1 X110.909 Y107.247 E2.0352
G1 X110.763 Y107.386 E2.04991
G1 X110.756 Y107.593 E2.06502
G1 X110.865 Y107.727 E2.07762
G1 X111.02 Y107.762 E2.08922
G1 X111.163 Y107.705 E2.10045
G1 X111.251 Y107.576 E2.11185
G1 X111.251 Y107.5 E2.1174
G1 E.1174 F2400
G92 E0
G1 X111.251 Y105 F7800
G1 E2 F2400
G1 F1800
G1 X111.202 Y104.851 E2.01145
G1 X111.075 Y104.755 E2.02307
G1 X110.909 Y104.747 E2.0352
G1 X110.763 Y104.886 E2.04991
G1 X110.756 Y105.093 E2.06502
G1 X110.865 Y105.227 E2.07762
G1 X111.02 Y105.262 E2.08922
G1 X111.163 Y105.205 E2.10045
G1 X111.251 Y105.076 E2.11185
G1 X111.251 Y105 E2.1174
G1 E.1174 F2400
G92 E0
G1 X111.251 Y102.5 F7800
G1 E2 F2400
;WIDTH:0.576495
G1 F1800
G1 X111.201 Y102.35 E2.01154
G1 X111.069 Y102.252 E2.02353
G1 X110.95 Y102.239 E2.03226
G1 X110.808 Y102.321 E2.04422
G1 X110.732 Y102.531 E2.06051
G1 X110.865 Y102.727 E2.07779
G1 X111.02 Y102.762 E2.08938
G1 X111.164 Y102.705 E2.10068
G1 X111.251 Y102.576 E2.11203
G1 X111.251 Y102.5 E2.11757
G1 E.11757 F2400
G92 E0
G1 X117.251 Y105 F7800
G1 E2 F2400
;WIDTH:0.576527
G1 F1800
G1 X117.201 Y104.85 E2.01154
G1 X117.069 Y104.752 E2.02354
G1 X116.95 Y104.739 E2.03227
G1 X116.808 Y104.821 E2.04423
G1 X116.732 Y105.02 E2.05977
G1 X116.808 Y105.179 E2.07263
G1 X116.942 Y105.256 E2.08391
G1 X117.096 Y105.244 E2.09518
G1 X117.251 Y105.098 E2.11072
G1 X117.251 Y105 E2.11787
G1 E.11787 F2400
G92 E0
G1 X119.751 Y107.5 F7800
G1 E2 F2400
;WIDTH:0.576625
G1 F1800
G1 X119.702 Y107.351 E2.01145
G1 X119.575 Y107.255 E2.02307
G1 X119.409 Y107.247 E2.0352
G1 X119.263 Y107.386 E2.04991
G1 X119.24 Y107.539 E2.0612
G1 X119.308 Y107.679 E2.07256
G1 X119.442 Y107.756 E2.08384
G1 X119.596 Y107.744 E2.09511
G1 X119.751 Y107.598 E2.11065
G1 X119.751 Y107.5 E2.1178
G1 E.1178 F2400
G92 E0
G1 X123.251 Y105 F7800
G1 E2 F2400
G1 F1800
G1 X123.202 Y104.851 E2.01145
G1 X123.075 Y104.755 E2.02307
G1 X122.909 Y104.747 E2.0352
G1 X122.763 Y104.886 E2.04991
G1 X122.74 Y105.039 E2.0612
G1 X122.808 Y105.179 E2.07256
G1 X122.942 Y105.256 E2.08384
G1 X123.096 Y105.244 E2.09511
G1 X123.251 Y105.098 E2.11065
G1 X123.251 Y105 E2.1178
G1 E.1178 F2400
G92 E0
G1 X123.251 Y107.5 F7800
G1 E2 F2400
G1 F1800
G1 X123.202 Y107.351 E2.01145
G1 X123.075 Y107.255 E2.02307
G1 X122.909 Y107.247 E2.0352
G1 X122.763 Y107.386 E2.04991
G1 X122.74 Y107.539 E2.0612
G1 X122.808 Y107.679 E2.07256
G1 X122.942 Y107.756 E2.08384
G1 X123.096 Y107.744 E2.09511
G1 X123.251 Y107.598 E2.11065
G1 X123.251 Y107.5 E2.1178
G1 E.1178 F2400
G92 E0
G1 X125.751 Y107.5 F7800
G1 E2 F2400
G1 F1800
G1 X125.702 Y107.351 E2.01145
G1 X125.575 Y107.255 E2.02307
G1 X125.409 Y107.247 E2.0352
G1 X125.263 Y107.386 E2.04991
G1 X125.24 Y107.539 E2.0612
G1 X125.308 Y107.679 E2.07256
G1 X125.442 Y107.756 E2.08384
G1 X125.596 Y107.744 E2.09511
G1 X125.751 Y107.598 E2.11065
G1 X125.751 Y107.5 E2.1178
G1 E.1178 F2400
G92 E0
G1 X125.751 Y105 F7800
G1 E2 F2400
G1 F1800
G1 X125.702 Y104.851 E2.01145
G1 X125.575 Y104.755 E2.02307
G1 X125.409 Y104.747 E2.0352
G1 X125.263 Y104.886 E2.04991
G1 X125.24 Y105.039 E2.0612
G1 X125.308 Y105.179 E2.07256
G1 X125.442 Y105.256 E2.08384
G1 X125.596 Y105.244 E2.09511
G1 X125.751 Y105.098 E2.11065
G1 X125.751 Y105 E2.1178
G1 E.1178 F2400
G92 E0
G1 X129.251 Y107.5 F7800
G1 E2 F2400
G1 F1800
G1 X129.202 Y107.351 E2.01145
G1 X129.075 Y107.255 E2.02307
G1 X128.909 Y107.247 E2.0352
G1 X128.763 Y107.386 E2.04991
G1 X128.74 Y107.539 E2.0612
G1 X128.808 Y107.679 E2.07256
G1 X128.942 Y107.756 E2.08384
G1 X129.096 Y107.744 E2.09511
G1 X129.251 Y107.598 E2.11065
G1 X129.251 Y107.5 E2.1178
G1 E.1178 F2400
G92 E0
G1 X129.251 Y105 F7800
G1 E2 F2400
G1 F1800
G1 X129.202 Y104.851 E2.01145
G1 X129.075 Y104.755 E2.02307
G1 X128.909 Y104.747 E2.0352
G1 X128.763 Y104.886 E2.04991
G1 X128.74 Y105.039 E2.0612
G1 X128.808 Y105.179 E2.07256
G1 X128.942 Y105.256 E2.08384
G1 X129.096 Y105.244 E2.09511
G1 X129.251 Y105.098 E2.11065
G1 X129.251 Y105 E2.1178
G1 E.1178 F2400
G92 E0
G1 X131.751 Y105 F7800
G1 E2 F2400
G1 F1800
G1 X131.702 Y104.851 E2.01145
G1 X131.575 Y104.755 E2.02307
G1 X131.409 Y104.747 E2.0352
G1 X131.263 Y104.886 E2.04991
G1 X131.24 Y105.039 E2.0612
G1 X131.308 Y105.179 E2.07256
G1 X131.442 Y105.256 E2.08384
G1 X131.596 Y105.244 E2.09511
G1 X131.751 Y105.098 E2.11065
